img/icon/edit-blue.svg

<svg width="24" height="24" viewBox="0 0 24 24" fill="none" xmlns="http://www.w3.org/2000/svg">
<path d="M11.159 15.4271H8.573V12.8411C8.573 12.5761 8.678 12.3211 8.866 12.1341L12.866 8.13407C13.257 7.74307 13.89 7.74307 14.28 8.13407L15.866 9.72007C16.257 10.1111 16.257 10.7441 15.866 11.1341L11.866 15.1341C11.679 15.3211 11.424 15.4271 11.159 15.4271V15.4271Z" stroke="url(#paint0_linear)" stroke-width="1.5" stroke-linecap="round" stroke-linejoin="round"/>
<path d="M14 21H10C6.134 21 3 17.866 3 14V10C3 6.134 6.134 3 10 3H14C17.866 3 21 6.134 21 10V14C21 17.866 17.866 21 14 21Z" stroke="url(#paint1_linear)" stroke-width="1.5" stroke-linecap="round" stroke-linejoin="round"/>
<defs>
<linearGradient id="paint0_linear" x1="8.573" y1="7.84082" x2="8.573" y2="15.4271" gradientUnits="userSpaceOnUse">
<stop stop-color="#5986FB"/>
<stop offset="1" stop-color="#2D4EF5"/>
</linearGradient>
<linearGradient id="paint1_linear" x1="3" y1="3" x2="3" y2="21" gradientUnits="userSpaceOnUse">
<stop stop-color="#5986FB"/>
<stop offset="1" stop-color="#2D4EF5"/>
</linearGradient>
</defs>
</svg>

<svg width="24" height="24" fill="none" xmlns="http://www.w3.org/2000/svg"><path d="M11.159 15.427H8.573v-2.586c0-.265.105-.52.293-.707l4-4a.999.999 0 0 1 1.414 0l1.586 1.586a.999.999 0 0 1 0 1.414l-4 4a1.002 1.002 0 0 1-.707.293z" stroke="url(#paint0_linear)" stroke-width="1.5" stroke-linecap="round" stroke-linejoin="round"/><path d="M14 21h-4a7 7 0 0 1-7-7v-4a7 7 0 0 1 7-7h4a7 7 0 0 1 7 7v4a7 7 0 0 1-7 7z" stroke="url(#paint1_linear)" stroke-width="1.5" stroke-linecap="round" stroke-linejoin="round"/><defs><linearGradient id="paint0_linear" x1="8.573" y1="7.841" x2="8.573" y2="15.427" gradientUnits="userSpaceOnUse"><stop stop-color="#5986FB"/><stop offset="1" stop-color="#2D4EF5"/></linearGradient><linearGradient id="paint1_linear" x1="3" y1="3" x2="3" y2="21" gradientUnits="userSpaceOnUse"><stop stop-color="#5986FB"/><stop offset="1" stop-color="#2D4EF5"/></linearGradient></defs></svg>
